X: 38064
T: Spirit Of The Dance
R: jig
M: 6/8
K: Dmajor
|:d2 A B2 A|d2 A B2 A|def g2 f|efd cBA|
d2 A B2 A|d2 A B2 A|def gab|age d3:|
|:Adf G3|f3 e3|Adf a3|g3 f3|
Adf G3|f3 e2 A|fga fed|f2 e d3:|

